icons/2_Variations/Wix bg.var.svg

<svg xmlns="http://www.w3.org/2000/svg" width="1024" height="1024" fill="none">
   <g clip-path="url(#a)">
      <path fill="#8C72BD" d="M512 1024c282.77 0 512-229.23 512-512S794.77 0 512 0 0 229.23 0 512s229.23 512 512 512Z"/>
      <path fill="#fff" d="M548.9 416.2c7.8-4.1 21.8-3.7 21.8-3.7 0 13.6-1.3 21.7-9.9 28-2.7 2-7.5 5.1-13 7.1-7.6 2.8-12.8 7.7-12.8 7.7 0-24.8 3.8-33.8 13.9-39.1Zm-60.1 5.8c-8.3 7.3-10.7 18.9-10.7 18.9L450.7 547l-22.8-86.9c-2.2-9.2-6.2-20.7-12.5-28.4-8.1-9.8-24.5-10.5-26.2-10.5-1.7 0-18.1.6-26.2 10.5-6.3 7.7-10.3 19.1-12.5 28.4L327.6 547l-27.4-106.1s-2.4-11.6-10.7-18.9c-13.4-11.8-33.5-9.3-33.5-9.3L308.4 611s17.3 1.2 26-3.2c11.4-5.8 16.8-10.3 23.7-37.3 6.1-24.1 23.3-94.7 24.9-99.8.8-2.5 1.8-8.4 6.2-8.4 4.5 0 5.4 5.9 6.2 8.4 1.6 5 18.8 75.7 24.9 99.8 6.9 27 12.3 31.5 23.7 37.3 8.7 4.4 26 3.2 26 3.2l52.5-198.4c-.2.1-20.3-2.5-33.7 9.4Zm81.9 23.1s-3.3 5.1-10.8 9.3c-4.8 2.7-9.4 4.5-14.4 6.9-8.3 4-10.5 8.4-10.5 15.2V611s13.2 1.7 21.9-2.7c11.1-5.7 13.7-11.2 13.8-35.8V445.1Zm130.8 67.2 66.6-99s-28.1-4.8-42 7.9c-8.9 8.1-18.9 22.7-18.9 22.7l-24.5 35.3c-1.2 1.8-2.7 3.8-5.2 3.8s-4-2-5.2-3.8l-24.5-35.3s-10-14.6-18.9-22.7c-13.9-12.7-42-7.9-42-7.9l66.6 99L587 611s29.3 3.7 43.2-9c8.9-8.1 17.5-21.3 17.5-21.3l24.5-35.3c1.2-1.8 2.7-3.8 5.2-3.8s4 2 5.2 3.8l24.5 35.3s9.1 13.2 18 21.3c13.9 12.7 42.7 9 42.7 9l-66.3-98.7Z"/>
   </g>
   <defs>
      <clipPath id="a">
         <path fill="#fff" d="M0 0h1024v1024H0z"/>
      </clipPath>
   </defs>
</svg>

<svg width="1024" height="1024" viewBox="0 0 1024 1024" fill="none" xmlns="http://www.w3.org/2000/svg">
<g clip-path="url(#clip0_3_338)">
<path d="M512 1024C794.77 1024 1024 794.77 1024 512C1024 229.23 794.77 0 512 0C229.23 0 0 229.23 0 512C0 794.77 229.23 1024 512 1024Z" fill="#8C72BD"/>
<path d="M548.9 416.2C556.7 412.1 570.7 412.5 570.7 412.5C570.7 426.1 569.4 434.2 560.8 440.5C558.1 442.5 553.3 445.6 547.8 447.6C540.2 450.4 535 455.3 535 455.3C535 430.5 538.8 421.5 548.9 416.2ZM488.8 422C480.5 429.3 478.1 440.9 478.1 440.9L450.7 547L427.9 460.1C425.7 450.9 421.7 439.4 415.4 431.7C407.3 421.9 390.9 421.2 389.2 421.2C387.5 421.2 371.1 421.8 363 431.7C356.7 439.4 352.7 450.8 350.5 460.1L327.6 547L300.2 440.9C300.2 440.9 297.8 429.3 289.5 422C276.1 410.2 256 412.7 256 412.7L308.4 611C308.4 611 325.7 612.2 334.4 607.8C345.8 602 351.2 597.5 358.1 570.5C364.2 546.4 381.4 475.8 383 470.7C383.8 468.2 384.8 462.3 389.2 462.3C393.7 462.3 394.6 468.2 395.4 470.7C397 475.7 414.2 546.4 420.3 570.5C427.2 597.5 432.6 602 444 607.8C452.7 612.2 470 611 470 611L522.5 412.6C522.3 412.7 502.2 410.1 488.8 422ZM570.7 445.1C570.7 445.1 567.4 450.2 559.9 454.4C555.1 457.1 550.5 458.9 545.5 461.3C537.2 465.3 535 469.7 535 476.5V611C535 611 548.2 612.7 556.9 608.3C568 602.6 570.6 597.1 570.7 572.5V445.1ZM701.5 512.3L768.1 413.3C768.1 413.3 740 408.5 726.1 421.2C717.2 429.3 707.2 443.9 707.2 443.9L682.7 479.2C681.5 481 680 483 677.5 483C675 483 673.5 481 672.3 479.2L647.8 443.9C647.8 443.9 637.8 429.3 628.9 421.2C615 408.5 586.9 413.3 586.9 413.3L653.5 512.3L587 611C587 611 616.3 614.7 630.2 602C639.1 593.9 647.7 580.7 647.7 580.7L672.2 545.4C673.4 543.6 674.9 541.6 677.4 541.6C679.9 541.6 681.4 543.6 682.6 545.4L707.1 580.7C707.1 580.7 716.2 593.9 725.1 602C739 614.7 767.8 611 767.8 611L701.5 512.3Z" fill="white"/>
</g>
<defs>
<clipPath id="clip0_3_338">
<rect width="1024" height="1024" fill="white"/>
</clipPath>
</defs>
</svg>
